!!!SOCIAL_FUNCTION:	songs with hunting dance
!!!PDT:	1956
!!!OTL: No_50_Cow_Creek_Hunting_Dance_Song_(q).krn
!!!LANG: Non-Tone
!!!LING_GROUP: Muskogean
!!!REG: Florida
**kern
*staff1
=1-
=
*clefF4
*k[b-]
*M2/4
4A\
4F\
=2
4F\
4A\
=3
2A\
=4||
*M3/4
8c\L
16A\L
16A\JJ
2A\
=5||
*M2/4
8A\L
8G\J
8F\
8r
=6
4c\
4A\
=7
8A\L
8G\J
8A\L
8G\J
=8
2F\
=9||
*M3/4
8A\L
16F\L
16F\JJ
2F\
=10||
*M2/4
2F\
=11
4F\
4C/
=12
8C/
8r
4E\
=13
2F\
=14||
*M3/4
8A\L
16F\L
16F\JJ
2F\
=15||
*M2/4
2F\
==:|!
*-
